flaticon/file-type/zip-1.svg

<svg xmlns="http://www.w3.org/2000/svg" width="32" height="32" viewBox="0 0 24 24">
    <path d="M 21.082031 5.042969 L 16.585938 0.546875 L 16.269531 0.226562 C 16.121094 0.0820312 15.925781 0 15.71875 0 L 3.707031 0 C 3.144531 0 2.691406 0.457031 2.691406 1.019531 L 2.691406 22.980469 C 2.691406 23.542969 3.144531 24 3.707031 24 L 20.292969 24 C 20.851562 24 21.308594 23.542969 21.308594 22.980469 L 21.308594 5.59375 C 21.308594 5.386719 21.230469 5.191406 21.082031 5.042969 Z M 19.835938 4.964844 L 16.34375 4.964844 L 16.34375 1.476562 Z M 20.292969 23.171875 L 12.207031 23.171875 L 12.207031 18.207031 L 13.863281 18.207031 L 13.863281 14.070312 L 12.207031 14.070312 L 12.207031 13.242188 L 13.035156 13.242188 L 13.035156 12.414062 L 12.207031 12.414062 L 12.207031 11.585938 L 13.035156 11.585938 L 13.035156 10.757812 L 12.207031 10.757812 L 12.207031 9.929688 L 13.035156 9.929688 L 13.035156 9.101562 L 12.207031 9.101562 L 12.207031 8.277344 L 11.378906 8.277344 L 11.378906 9.101562 L 10.550781 9.101562 L 10.550781 9.929688 L 11.378906 9.929688 L 11.378906 10.757812 L 10.550781 10.757812 L 10.550781 11.585938 L 11.378906 11.585938 L 11.378906 12.414062 L 10.550781 12.414062 L 10.550781 13.242188 L 11.378906 13.242188 L 11.378906 14.070312 L 9.722656 14.070312 L 9.722656 18.207031 L 11.378906 18.207031 L 11.378906 23.171875 L 3.707031 23.171875 C 3.601562 23.171875 3.515625 23.085938 3.515625 22.980469 L 3.515625 1.019531 C 3.515625 0.914062 3.601562 0.828125 3.707031 0.828125 L 15.542969 0.828125 C 15.527344 0.878906 15.515625 0.933594 15.515625 0.988281 L 15.515625 5.792969 L 20.320312 5.792969 C 20.375 5.792969 20.429688 5.78125 20.484375 5.769531 L 20.484375 22.980469 C 20.484375 23.085938 20.398438 23.171875 20.292969 23.171875 Z M 13.035156 14.898438 L 13.035156 15.308594 L 10.550781 15.308594 L 10.550781 14.898438 Z M 10.550781 16.136719 L 13.035156 16.136719 L 13.035156 17.378906 L 10.550781 17.378906 Z M 10.550781 16.136719"/>
</svg>

<svg xmlns="http://www.w3.org/2000/svg" width="32" height="32" viewBox="0 0 24 24">
    <path d="M21.082 5.043L16.586.547l-.316-.32A.787.787 0 0 0 15.719 0H3.707c-.562 0-1.016.457-1.016 1.02v21.96c0 .563.454 1.02 1.016 1.02h16.586a1.02 1.02 0 0 0 1.016-1.02V5.594a.77.77 0 0 0-.227-.551zm-1.246-.078h-3.492V1.477zm.457 18.207h-8.086v-4.965h1.656V14.07h-1.656v-.828h.828v-.828h-.828v-.828h.828v-.828h-.828V9.93h.828v-.828h-.828v-.825h-.828v.825h-.828v.828h.828v.828h-.828v.828h.828v.828h-.828v.828h.828v.828H9.723v4.137h1.656v4.965H3.707a.192.192 0 0 1-.191-.192V1.02c0-.106.086-.192.191-.192h11.836a.55.55 0 0 0-.027.16v4.805h4.804c.055 0 .11-.012.164-.023v17.21a.192.192 0 0 1-.191.192zm-7.258-8.274v.41h-2.484v-.41zm-2.484 1.239h2.484v1.242h-2.484zm0 0"/>
</svg>
